assets/icons/24px/outline/bold-24px.svg

<svg width="24" height="24" viewBox="0 0 24 24" fill="none" xmlns="http://www.w3.org/2000/svg">
<path d="M4 2C3.44772 2 3 2.44772 3 3C3 3.55228 3.44772 4 4 4V2ZM14 12L13.8039 11.0194C13.3299 11.1142 12.9916 11.5344 13.0002 12.0177C13.0088 12.5011 13.3618 12.909 13.8389 12.9869L14 12ZM19 17L18 17L19 17ZM4 20C3.44772 20 3 20.4477 3 21C3 21.5523 3.44772 22 4 22V20ZM13.5757 21.0007L13.5595 22.0005L13.5757 21.0007ZM13.5343 21L13.5424 20.0001L13.5343 21ZM13.5455 3C13.5455 4 13.5451 4 13.5448 4C13.5447 4 13.5444 4 13.5443 4C13.544 4 13.5437 4 13.5436 4C13.5433 4 13.5433 4 13.5436 4C13.5442 4 13.5461 4.00002 13.5493 4.00005C13.5555 4.00013 13.5666 4.0003 13.5823 4.00068C13.6136 4.00144 13.6629 4.00306 13.7275 4.00644C13.8571 4.01323 14.0469 4.02707 14.2764 4.05511C14.7406 4.11184 15.3417 4.22371 15.9285 4.43888C16.5201 4.65582 17.0416 4.95742 17.4078 5.36017C17.7543 5.74137 18 6.25248 18 7H20C20 5.74752 19.5639 4.75863 18.8877 4.01483C18.2311 3.29258 17.389 2.84418 16.617 2.56112C15.8402 2.27629 15.0776 2.13816 14.519 2.06989C14.2372 2.03543 14.0008 2.01802 13.8321 2.00918C13.7477 2.00476 13.6798 2.00246 13.6311 2.00128C13.6068 2.00068 13.5873 2.00036 13.5729 2.00019C13.5657 2.00011 13.5598 2.00006 13.5552 2.00003C13.5529 2.00002 13.551 2.00001 13.5493 2.00001C13.5485 2 13.5478 2 13.5471 2C13.5468 2 13.5464 2 13.5462 2C13.5458 2 13.5455 2 13.5455 3ZM18 7C18 8.50298 17.0849 9.48287 15.9855 10.1425C15.4407 10.4694 14.8872 10.6918 14.465 10.8325C14.2557 10.9023 14.083 10.9505 13.9658 10.9807C13.9073 10.9957 13.863 11.0062 13.8351 11.0125C13.8212 11.0156 13.8114 11.0178 13.8061 11.0189C13.8035 11.0195 13.8019 11.0198 13.8015 11.0199C13.8013 11.0199 13.8014 11.0199 13.8018 11.0198C13.802 11.0198 13.8023 11.0197 13.8026 11.0196C13.8028 11.0196 13.8031 11.0195 13.8032 11.0195C13.8035 11.0195 13.8039 11.0194 14 12C14.1961 12.9805 14.1965 12.9805 14.1969 12.9804C14.1971 12.9804 14.1975 12.9803 14.1978 12.9802C14.1985 12.9801 14.1992 12.9799 14.2 12.9798C14.2016 12.9794 14.2035 12.979 14.2057 12.9786C14.2101 12.9777 14.2158 12.9765 14.2226 12.9751C14.2362 12.9722 14.2545 12.9682 14.2772 12.963C14.3226 12.9527 14.3857 12.9378 14.4639 12.9177C14.6201 12.8775 14.8381 12.8164 15.0975 12.7299C15.6128 12.5581 16.3093 12.2806 17.0145 11.8575C18.4151 11.0171 20 9.49702 20 7H18ZM14 12C13.8389 12.9869 13.8385 12.9868 13.8382 12.9868C13.8381 12.9868 13.8377 12.9867 13.8375 12.9867C13.8372 12.9866 13.8369 12.9866 13.8366 12.9865C13.8362 12.9865 13.836 12.9864 13.8361 12.9864C13.8364 12.9865 13.8378 12.9867 13.8403 12.9872C13.8453 12.9881 13.8548 12.9898 13.8684 12.9924C13.8957 12.9976 13.9394 13.0063 13.9972 13.0192C14.113 13.0451 14.284 13.0872 14.4915 13.15C14.9102 13.2767 15.4583 13.482 15.9972 13.7955C17.0715 14.4203 18 15.3943 18 17L20 17C20 14.4218 18.4285 12.8959 17.0028 12.0666C16.2917 11.653 15.5898 11.3928 15.071 11.2358C14.8097 11.1567 14.5901 11.1023 14.4325 11.0672C14.3536 11.0496 14.2899 11.0367 14.2439 11.0279C14.2209 11.0235 14.2023 11.0201 14.1884 11.0177C14.1814 11.0165 14.1757 11.0155 14.1711 11.0147C14.1688 11.0143 14.1669 11.014 14.1652 11.0137C14.1643 11.0136 14.1636 11.0134 14.1629 11.0133C14.1626 11.0133 14.1621 11.0132 14.162 11.0132C14.1615 11.0131 14.1611 11.013 14 12ZM18 17C18 17.7732 17.766 18.2935 17.4489 18.6698C17.1166 19.0642 16.6424 19.3584 16.0919 19.5702C14.973 20.0008 13.7729 20.0037 13.5919 20.0008L13.5595 22.0005C13.8137 22.0047 15.3257 22.008 16.8101 21.4368C17.5614 21.1477 18.3616 20.6905 18.9784 19.9585C19.6103 19.2085 20 18.2275 20 17L18 17ZM13.5118 20H7.63636V22H13.5118V20ZM7.63636 20H4V22H7.63636V20ZM4 4H7.63636V2H4V4ZM7.63636 4H13.5455V2H7.63636V4ZM8.63636 21V3H6.63636V21H8.63636ZM13.5919 20.0008C13.5708 20.0005 13.5518 20.0001 13.5424 20.0001L13.5262 22C13.524 22 13.523 22 13.5249 22C13.5263 22 13.5284 22 13.5315 22.0001C13.5379 22.0002 13.5469 22.0003 13.5595 22.0005L13.5919 20.0008ZM13.5118 22C13.5182 22 13.5221 22 13.525 22C13.5281 22 13.5278 22 13.5262 22L13.5424 20.0001C13.5331 20 13.5215 20 13.5118 20V22Z" fill="white"/>
</svg>

<svg width="24" height="24" fill="none" xmlns="http://www.w3.org/2000/svg"><path d="M4 2a1 1 0 0 0 0 2V2zm10 10l-.196-.98a1 1 0 0 0 .035 1.967L14 12zm5 5h-1 1zM4 20a1 1 0 1 0 0 2v-2zm9.576 1l-.017 1 .017-1zm-.042 0l.008-1-.008 1zm.011-18v1h-.001.005a2.919 2.919 0 0 1 .178.006c.13.007.32.021.55.05a7.563 7.563 0 0 1 1.652.383c.591.217 1.113.518 1.479.921.346.381.592.892.592 1.64h2c0-1.252-.436-2.241-1.112-2.985-.657-.722-1.499-1.17-2.271-1.454a9.557 9.557 0 0 0-2.098-.491 10.029 10.029 0 0 0-.964-.07h-.006-.002c-.001 0-.002 0-.002 1zM18 7c0 1.503-.915 2.483-2.014 3.143a7.783 7.783 0 0 1-2.15.87l-.03.006h-.004.001L14 12a119.947 119.947 0 0 0 .198.98h.002l.006-.001.017-.004a9.51 9.51 0 0 0 .875-.245 9.786 9.786 0 0 0 1.917-.872C18.415 11.018 20 9.496 20 7h-2zm-4 5l-.162.987h-.001s-.001 0 0 0h.003l.028.005.13.027a7.168 7.168 0 0 1 2 .776C17.07 14.42 18 15.396 18 17h2c0-2.578-1.572-4.104-2.997-4.933a9.167 9.167 0 0 0-2.815-1.05l-.017-.002-.006-.001h-.002-.001L14 12zm4 5c0 .773-.234 1.294-.551 1.67-.332.394-.807.688-1.357.9-1.119.43-2.32.434-2.5.43l-.033 2c.255.005 1.767.008 3.251-.563.751-.29 1.552-.747 2.168-1.479C19.61 19.209 20 18.229 20 17h-2zm-4.488 3H7.636v2h5.876v-2zm-5.876 0H4v2h3.636v-2zM4 4h3.636V2H4v2zm3.636 0h5.91V2h-5.91v2zm1 17V3h-2v18h2zm4.956-1h-.05l-.016 2h-.001.034l.033-2zm-.08 2H13.526l.016-2h-.03v2z" fill="#fff"/></svg>
